packages/components/src/components/icon/common/ic-assets-stocks.svg

<svg width="24" height="24" viewBox="0 0 24 24" fill="none" xmlns="http://www.w3.org/2000/svg">
<path fill-rule="evenodd" clip-rule="evenodd" d="M23.25 2.25C23.25 3.49264 22.2426 4.5 21 4.5C20.7407 4.5 20.4917 4.45615 20.26 4.37547L16.911 8.56171C17.1259 8.90654 17.25 9.31377 17.25 9.75C17.25 10.9926 16.2426 12 15 12C13.7574 12 12.75 10.9926 12.75 9.75C12.75 9.40256 12.8287 9.07352 12.9694 8.77975L9.97025 5.78063C9.67648 5.92125 9.34744 6 9 6C8.65259 6 8.32358 5.92127 8.02982 5.78067L5.03067 8.77982C5.17127 9.07358 5.25 9.40259 5.25 9.75C5.25 10.9926 4.24264 12 3 12C1.75736 12 0.75 10.9926 0.75 9.75C0.75 8.50736 1.75736 7.5 3 7.5C3.34731 7.5 3.67625 7.57869 3.96995 7.71922L6.96922 4.71994C6.82869 4.42625 6.75 4.09731 6.75 3.75C6.75 2.50736 7.75736 1.5 9 1.5C10.2426 1.5 11.25 2.50736 11.25 3.75C11.25 4.09728 11.1713 4.42619 11.0308 4.71987L14.0301 7.71919C14.3238 7.57868 14.6527 7.5 15 7.5C15.2592 7.5 15.5081 7.54382 15.7398 7.62446L19.0889 3.43812C18.8741 3.09332 18.75 2.68615 18.75 2.25C18.75 1.00736 19.7574 0 21 0C22.2426 0 23.25 1.00736 23.25 2.25ZM20.4145 1.78129C20.3116 1.90969 20.25 2.07266 20.25 2.25C20.25 2.66421 20.5858 3 21 3C21.2071 3 21.3946 2.91605 21.5303 2.78033C21.5468 2.76391 21.5624 2.74672 21.5773 2.72884C21.6851 2.59894 21.75 2.43205 21.75 2.25C21.75 1.83579 21.4142 1.5 21 1.5C20.7631 1.5 20.5519 1.60981 20.4145 1.78129ZM3.57874 10.2271C3.56633 10.2421 3.55336 10.2566 3.53984 10.2706L3.53985 10.2706C3.40344 10.412 3.21199 10.5 3 10.5C2.58579 10.5 2.25 10.1642 2.25 9.75C2.25 9.54282 2.33401 9.35526 2.46981 9.21953C2.60552 9.08389 2.79297 9 3 9C3.41421 9 3.75 9.33579 3.75 9.75C3.75 9.93122 3.68573 10.0974 3.57874 10.2271ZM14.4575 10.2678C14.4781 10.2894 14.4999 10.3097 14.5229 10.3287C14.6526 10.4357 14.8188 10.5 15 10.5C15.2322 10.5 15.4397 10.3945 15.5773 10.2288C15.5831 10.2218 15.5889 10.2146 15.5945 10.2073L15.5945 10.2073C15.604 10.195 15.6132 10.1823 15.6219 10.1693C15.7028 10.0496 15.75 9.90533 15.75 9.75C15.75 9.33579 15.4142 9 15 9C14.5858 9 14.25 9.33579 14.25 9.75C14.25 9.95083 14.3289 10.1332 14.4575 10.2678ZM18.75 9.75C18.75 8.50736 19.7574 7.5 21 7.5C22.2426 7.5 23.25 8.50736 23.25 9.75V21.75C23.25 22.9926 22.2426 24 21 24C19.7574 24 18.75 22.9926 18.75 21.75V9.75ZM21 9C20.5858 9 20.25 9.33579 20.25 9.75V21.75C20.25 22.1642 20.5858 22.5 21 22.5C21.4142 22.5 21.75 22.1642 21.75 21.75V9.75C21.75 9.33579 21.4142 9 21 9ZM0.75 15.75C0.75 14.5074 1.75736 13.5 3 13.5C4.24264 13.5 5.25 14.5074 5.25 15.75V21.75C5.25 22.9926 4.24264 24 3 24C1.75736 24 0.75 22.9926 0.75 21.75V15.75ZM3 15C2.58579 15 2.25 15.3358 2.25 15.75V21.75C2.25 22.1642 2.58579 22.5 3 22.5C3.41421 22.5 3.75 22.1642 3.75 21.75V15.75C3.75 15.3358 3.41421 15 3 15ZM12.75 15.75C12.75 14.5074 13.7574 13.5 15 13.5C16.2426 13.5 17.25 14.5074 17.25 15.75V21.75C17.25 22.9926 16.2426 24 15 24C13.7574 24 12.75 22.9926 12.75 21.75V15.75ZM15 15C14.5858 15 14.25 15.3358 14.25 15.75V21.75C14.25 22.1642 14.5858 22.5 15 22.5C15.4142 22.5 15.75 22.1642 15.75 21.75V15.75C15.75 15.3358 15.4142 15 15 15ZM6.75 11.25C6.75 10.0074 7.75736 9 9 9C10.2426 9 11.25 10.0074 11.25 11.25V21.75C11.25 22.9926 10.2426 24 9 24C7.75736 24 6.75 22.9926 6.75 21.75V11.25ZM9 10.5C8.58579 10.5 8.25 10.8358 8.25 11.25V21.75C8.25 22.1642 8.58579 22.5 9 22.5C9.41421 22.5 9.75 22.1642 9.75 21.75V11.25C9.75 10.8358 9.41421 10.5 9 10.5ZM9.75 3.75C9.75 4.16421 9.41421 4.5 9 4.5C8.58579 4.5 8.25 4.16421 8.25 3.75C8.25 3.33579 8.58579 3 9 3C9.41421 3 9.75 3.33579 9.75 3.75Z" fill="#333333"/>
</svg>

<svg width="24" height="24" fill="none" xmlns="http://www.w3.org/2000/svg"><path fill-rule="evenodd" clip-rule="evenodd" d="M23.25 2.25a2.25 2.25 0 0 1-2.99 2.125l-3.349 4.187a2.25 2.25 0 1 1-3.942.218l-2.999-3a2.241 2.241 0 0 1-1.94 0l-3 3a2.25 2.25 0 1 1-1.06-1.06l3-3a2.25 2.25 0 1 1 4.062 0l2.998 3a2.241 2.241 0 0 1 1.71-.096l3.349-4.186A2.25 2.25 0 1 1 23.25 2.25Zm-2.835-.469a.75.75 0 1 0 1.171.937.75.75 0 0 0-1.171-.937ZM3.579 10.227A.748.748 0 0 1 3 10.5a.75.75 0 1 1 .579-.273Zm10.878.04A.753.753 0 0 0 15 10.5a.748.748 0 0 0 .595-.293.746.746 0 0 0 .155-.457.75.75 0 1 0-1.293.518Zm4.293-.517a2.25 2.25 0 0 1 4.5 0v12a2.25 2.25 0 0 1-4.5 0v-12ZM21 9a.75.75 0 0 0-.75.75v12a.75.75 0 0 0 1.5 0v-12A.75.75 0 0 0 21 9ZM.75 15.75a2.25 2.25 0 0 1 4.5 0v6a2.25 2.25 0 0 1-4.5 0v-6ZM3 15a.75.75 0 0 0-.75.75v6a.75.75 0 0 0 1.5 0v-6A.75.75 0 0 0 3 15Zm9.75.75a2.25 2.25 0 0 1 4.5 0v6a2.25 2.25 0 0 1-4.5 0v-6ZM15 15a.75.75 0 0 0-.75.75v6a.75.75 0 0 0 1.5 0v-6A.75.75 0 0 0 15 15Zm-8.25-3.75a2.25 2.25 0 0 1 4.5 0v10.5a2.25 2.25 0 0 1-4.5 0v-10.5ZM9 10.5a.75.75 0 0 0-.75.75v10.5a.75.75 0 0 0 1.5 0v-10.5A.75.75 0 0 0 9 10.5Zm.75-6.75a.75.75 0 1 1-1.5 0 .75.75 0 0 1 1.5 0Z" fill="var(--fill-color1)"/></svg>
